material/.icons/material/wifi-strength-off-outline.svg

<svg xmlns="http://www.w3.org/2000/svg" viewBox="0 0 24 24"><path d="M3.27 1.44L2 2.72l2.05 2.05C2.75 5.37 1.5 6.11.38 7 4.2 11.8 8.14 16.67 12 21.5l3.91-4.87 3.32 3.32 1.27-1.27C14.87 13.04 3.27 1.44 3.27 1.44M12 3c-1.4 0-2.79.17-4.14.5l1.7 1.69C10.37 5.07 11.18 5 12 5c3.07 0 6.09.86 8.71 2.45l-3.95 4.93 1.42 1.42C20.08 11.43 22 9 23.65 7 20.32 4.41 16.22 3 12 3M5.57 6.29l8.93 8.92L12 18.3 3.27 7.44C4 7 4.78 6.61 5.57 6.29z"/></svg>

<?xml version="1.0" encoding="UTF-8"?><!DOCTYPE svg PUBLIC "-//W3C//DTD SVG 1.1//EN" "http://www.w3.org/Graphics/SVG/1.1/DTD/svg11.dtd"><svg xmlns="http://www.w3.org/2000/svg" xmlns:xlink="http://www.w3.org/1999/xlink" version="1.1" id="mdi-wifi-strength-off-outline" width="24" height="24" viewBox="0 0 24 24"><path d="M3.27,1.44L2,2.72L4.05,4.77C2.75,5.37 1.5,6.11 0.38,7C4.2,11.8 8.14,16.67 12,21.5L15.91,16.63L19.23,19.95L20.5,18.68C14.87,13.04 3.27,1.44 3.27,1.44M12,3C10.6,3 9.21,3.17 7.86,3.5L9.56,5.19C10.37,5.07 11.18,5 12,5C15.07,5 18.09,5.86 20.71,7.45L16.76,12.38L18.18,13.8C20.08,11.43 22,9 23.65,7C20.32,4.41 16.22,3 12,3M5.57,6.29L14.5,15.21L12,18.3L3.27,7.44C4,7 4.78,6.61 5.57,6.29Z" /></svg>
